!!!COM: Bach, Johann Sebastian
!!!OTL: 19. Ich hab' mein' Sach' Gott heimgestellt
!!!ONM: No. 19
!!!OCL: Erk
!!!SCA: BWV 351
!!!YOE: Riemenschneider, Albert
!!!OPR: 371 Harmonized Chorales and 69 Chorale Melodies with Figured Bass
!!!OPT: Bach Chorale Harmonizations
**harm	**root	**kern	**kern	**kern	**kern
!	!	!bass	!tenor	!alto	!sprno
*Iorgan	*Iorgan	*Iorgan	*Iorgan	*Iorgan	*Iorgan
*k[b-e-a-d-g-]	*k[b-e-a-d-g-]	*k[b-e-a-d-g-]	*k[b-e-a-d-g-]	*k[b-e-a-d-g-]	*k[b-e-a-d-g-]
*e-:	*e-:	*e-:	*e-:	*e-:	*e-:
*met(c)	*met(c)	*met(c)	*met(c)	*met(c)	*met(c)
*M4/4	*M4/4	*M4/4	*M4/4	*M4/4	*M4/4
*MM60	*MM60	*MM60	*MM60	*MM60	*MM60
i	4GG	4E-	4G-	4B-	4e-
=1	=1	=1	=1	=1	=1
i	4GG	8E-	8G-	4B-	4e-
.	.	8D-	8F	.	.
vii/V	4CC#	4C-	4E-	8B-	4e-
.	.	.	.	8A	.
V	4DD	8BB-	4F	4B-	4d
.	.	8AA-	.	.	.
ib	4GG	8GG-	4B-	8e-	4g-
.	.	8EE-	.	8d-	.
=2	=2	=2	=2	=2	=2
iib	4AA	4AA-	4A-	8c-	4f
.	.	.	.	8B-	.
viioD7/V	4CC#	4AA	8G-	4c	4e-
.	.	.	8F	.	.
V;	4DD;	4BB-;	4F;	4B-;	4d;
V	4DD	8BB-	4F	4B-	4d
.	.	[8C-	.	.	.
=3	=3	=3	=3	=3	=3
V7	4DD	8C-]	4F	4A-	4d
.	.	[8BB-	.	.	.
V	4DD	8BB-]	4F	4B-	4d
.	.	[8AA-	.	.	.
Ib	4GG	8AA-]	4E-	4B-	4e-
.	.	8GG	.	.	.
IV	4CC	8AA-	4E-	4A-	4c
.	.	8GG-	.	.	.
=4	=4	=4	=4	=4	=4
viioD7b	4FF#	4FF	8F	8A-	4d
.	.	.	8A-	8c-	.
V7	4DD	4BB-	8A-	4B-	4d
.	.	.	16G-	.	.
.	.	.	16F	.	.
I;	4GG;	4EE-;	4G-;	4B-;	4e-;
-VII	4FF	4D-	4A-	4d-	4f
=5	=5	=5	=5	=5	=5
!!linebreak: 2
-VII	4FF	8D-	4A-	4d-	4f
.	.	8E-	.	.	.
IVb	4CC	8D-	4A-	4e-	4a-
.	.	8C	.	.	.
-VII	4FF	8D-	4A-	4d-	4f
.	.	[8C-	.	.	.
IIIb	4BB-	8C-]	4G-	4d-	4d-
.	.	8BB-	.	.	.
=6	=6	=6	=6	=6	=6
VI	4EE-	8C-	4G-	8c-	4e-
.	.	8C	.	8B-	.
-VII	8FF	8D-	8F	8A-	4f
viioD7	8FF#	8D	8A-	8c-	.
i;	4GG;	4E-;	4G-;	4B-;	4g-;
i	4GG	4EE-	4B-	[4e-	4g-
=7	=7	=7	=7	=7	=7
V	4DD	4BB-	4.B-	8e-]	4f
.	.	.	.	8d	.
ivb	4CC	4C-	.	8e-	4e-
.	.	.	8A-	8E-	.
V;	4DD;	4BB-;	4F;	4B-;	4d;
V	4DD	4BB-	4F	4B-	4d
=8	=8	=8	=8	=8	=8
viib	4FF#	8FF	4F	8A-	4d
.	.	8GG-	.	8B-	.
viioD7c	4FF#	4AA-	4F	8c-	4d
.	.	.	.	8B-	.
ib	4GG	8GG-	[4E-	4B-	4e-
.	.	8GG	.	.	.
IV	8CC	8AA-	16E-]	4c	4c
.	.	.	16F	.	.
viioD7/V	8CC#	8AA	8G-y	.	.
=9	=9	=9	=9	=9	=9
V	4DD	4BB-	8F	4B-	4d
.	.	.	8E-	.	.
V	4DD	4BBB-	16F	4B-	4d
.	.	.	16G-	.	.
.	.	.	8A-	.	.
I;	4GG;	4EE-;	8A-	4B-;	4e-;
.	.	.	8G;	.	.
==	==	==	==	==	==
*-	*-	*-	*-	*-	*-
!!!CDT: 1685/3//-1750/7/28
!!!OCY: Deutschland
!!!AGN: chorale
!!!AST: Baroque
!!!AIN: vox
!!!YOY: 1941
!!!PPP: New York; London
!!!PPR: G. Schirmer
!!!ENC: David Huron
!!!EED: David Huron
!!!YEN: United States of America
!!!YER: 1992
!!!YEC: Copyright 1992 David Huron
!!!YEM: Rights to all derivative electronic formats reserved.
!!!YER: March 20, 1996
!!!AMT: simple quadruple
!!!EEV: 1.1
!!chor2scor: -l 2 -s 0.6 -o %b.pmx
